public/assets/img/svg/embed/duplicate.svg

<svg xmlns="http://www.w3.org/2000/svg" width="48" height="48" viewBox="-1.5 -5.5 48 48" enable-background="new -1.5 -5.5 48 48"><g><path d="M5.167 28.241h-3.497v-26.54h35.591v4.445c0 .469.375.85.835.85.462 0 .836-.381.836-.85v-5.296c0-.469-.374-.85-.836-.85h-37.261c-.461 0-.835.381-.835.85v28.241c0 .469.374.85.835.85h4.331c.462 0 .836-.381.836-.85s-.373-.85-.835-.85zm38.998-21.182h-37.268c-.461 0-.835.381-.835.85v28.24c0 .471.374.85.835.85h37.268c.461.001.835-.379.835-.849v-28.241c0-.469-.374-.85-.835-.85zm-36.433 1.701h35.599v26.539h-35.599v-26.539z"/><path d="M22.126 12c-5.583 0-10.126 4.542-10.126 10.125 0 5.584 4.543 10.127 10.126 10.127 5.584 0 10.126-4.543 10.126-10.127 0-5.583-4.542-10.125-10.126-10.125zm0 18.752c-4.756 0-8.626-3.87-8.626-8.627 0-4.756 3.87-8.625 8.626-8.625 4.757 0 8.626 3.869 8.626 8.625 0 4.757-3.869 8.627-8.626 8.627zm4.303-9.377h-3.553v-3.554c0-.415-.335-.75-.75-.75-.414 0-.75.335-.75.75v3.554h-3.554c-.414 0-.75.336-.75.75s.336.75.75.75h3.554v3.553c0 .414.336.75.75.75.415 0 .75-.336.75-.75v-3.553h3.553c.414 0 .75-.336.75-.75s-.336-.75-.75-.75z"/></g></svg>

<?xml version="1.0" encoding="utf-8"?>
<!-- Generator: Adobe Illustrator 17.0.0, SVG Export Plug-In . SVG Version: 6.00 Build 0)  -->
<!DOCTYPE svg PUBLIC "-//W3C//DTD SVG 1.1//EN" "http://www.w3.org/Graphics/SVG/1.1/DTD/svg11.dtd">
<svg version="1.1" id="Layer_1" xmlns:sketch="http://www.bohemiancoding.com/sketch/ns"
	 xmlns="http://www.w3.org/2000/svg" xmlns:xlink="http://www.w3.org/1999/xlink" x="0px" y="0px" width="48px" height="48px"
	 viewBox="-1.5 -5.5 48 48" enable-background="new -1.5 -5.5 48 48" xml:space="preserve">
<title>Fill 136 + Fill 78</title>
<desc>Created with Sketch.</desc>
<g id="UI" sketch:type="MSPage">
	<g id="Toolbox-Expanded" transform="translate(-582.000000, -209.000000)" sketch:type="MSArtboardGroup">
		<g id="Duplicate-_x2B_-Fill-136-_x2B_-Fill-78" transform="translate(562.000000, 209.000000)" sketch:type="MSLayerGroup">
			<g id="Fill-136-_x2B_-Fill-78" transform="translate(20.000000, 0.000000)" sketch:type="MSShapeGroup">
				<path id="Fill-136" d="M5.167,28.241H1.67V1.701h35.591v4.445c0,0.469,0.375,0.85,0.835,0.85c0.462,0,0.836-0.381,0.836-0.85
					V0.85c0-0.469-0.374-0.85-0.836-0.85H0.835C0.374,0,0,0.381,0,0.85v28.241c0,0.469,0.374,0.85,0.835,0.85h4.331
					c0.462,0,0.836-0.381,0.836-0.85S5.629,28.241,5.167,28.241L5.167,28.241z M44.165,7.059H6.897c-0.461,0-0.835,0.381-0.835,0.85
					v28.24c0,0.471,0.374,0.85,0.835,0.85h37.268C44.626,37,45,36.62,45,36.15V7.909C45,7.44,44.626,7.059,44.165,7.059
					L44.165,7.059z M7.732,8.76h35.599v26.539H7.732V8.76z"/>
				<path id="Fill-78" d="M22.126,12C16.543,12,12,16.542,12,22.125c0,5.584,4.543,10.127,10.126,10.127
					c5.584,0,10.126-4.543,10.126-10.127C32.252,16.542,27.71,12,22.126,12L22.126,12z M22.126,30.752
					c-4.756,0-8.626-3.87-8.626-8.627c0-4.756,3.87-8.625,8.626-8.625c4.757,0,8.626,3.869,8.626,8.625
					C30.752,26.882,26.883,30.752,22.126,30.752L22.126,30.752z M26.429,21.375h-3.553v-3.554c0-0.415-0.335-0.75-0.75-0.75
					c-0.414,0-0.75,0.335-0.75,0.75v3.554h-3.554c-0.414,0-0.75,0.336-0.75,0.75s0.336,0.75,0.75,0.75h3.554v3.553
					c0,0.414,0.336,0.75,0.75,0.75c0.415,0,0.75-0.336,0.75-0.75v-3.553h3.553c0.414,0,0.75-0.336,0.75-0.75
					S26.843,21.375,26.429,21.375L26.429,21.375z"/>
			</g>
		</g>
	</g>
</g>
</svg>
